Reedweeks/img/sunset 2.svg

<svg width="24" height="24" viewBox="0 0 24 24" fill="none" xmlns="http://www.w3.org/2000/svg">
<g clip-path="url(#clip0_657:4647)">
<path d="M13.6058 15.1912C13.6058 17.3989 15.3955 19.1886 17.6032 19.1886C19.8107 19.1886 21.6003 17.3989 21.6003 15.1912C21.6003 12.9838 19.8107 11.1941 17.6032 11.1941C15.3965 11.1965 13.6083 12.9847 13.6058 15.1912V15.1912ZM17.6032 11.9935C19.3693 11.9935 20.801 13.4251 20.801 15.1912C20.801 16.9574 19.3693 18.389 17.6032 18.389C15.837 18.389 14.4054 16.9574 14.4054 15.1912C14.4073 13.4261 15.8378 11.9954 17.6032 11.9935Z" fill="white"/>
<path d="M15.3191 23.186H19.8876V23.9854H15.3191V23.186Z" fill="white"/>
<path d="M13.6058 21.5869H21.6005V22.3865H13.6058V21.5869Z" fill="white"/>
<path d="M4.81177 21.5869H5.6113V22.3865H4.81177V21.5869Z" fill="white"/>
<path d="M2.41357 22.3862H3.21295V23.1858H2.41357V22.3862Z" fill="white"/>
<path d="M4.85173 19.3373C6.93892 15.7022 8.24852 11.6731 8.69747 7.50549L12.415 11.2009C12.4893 11.2749 12.5898 11.3167 12.6948 11.3172C12.7164 11.3174 12.7382 11.3156 12.7595 11.312C12.8862 11.2914 12.9952 11.2111 13.0525 11.0963C13.806 9.59219 13.5109 7.77447 12.3202 6.58614L11.9933 6.2591H14.8049C15.0256 6.25927 15.2048 6.08043 15.2048 5.85966C15.205 5.81644 15.1979 5.77355 15.1843 5.73275C14.6535 4.13627 13.1595 3.0597 11.4771 3.06131H10.9575L12.9538 1.05346C13.1096 0.897037 13.1089 0.64402 12.9525 0.488243C12.9222 0.458087 12.8873 0.43293 12.8491 0.413902C11.3444 -0.340474 9.5257 -0.0455292 8.33657 1.14586L7.95486 1.52757C7.83037 1.65286 7.71475 1.78639 7.60832 1.92733C7.50317 1.78639 7.38836 1.65286 7.26483 1.52757L6.88313 1.14586C5.69496 -0.0447229 3.87724 -0.339668 2.37348 0.413902C2.17594 0.512593 2.09579 0.752709 2.19448 0.950092C2.21351 0.988311 2.23867 1.02314 2.26883 1.05346L4.26732 3.06131H3.74258C2.06015 3.0597 0.566078 4.13627 0.03537 5.73275C-0.034617 5.94207 0.0784265 6.16848 0.287904 6.23846C0.328703 6.25217 0.371598 6.2591 0.414816 6.2591H3.22365L2.89677 6.58614C1.70603 7.77447 1.41092 9.59219 2.16433 11.0963C2.22174 11.2111 2.33075 11.2914 2.45734 11.312C2.47879 11.3156 2.5004 11.3174 2.52217 11.3172C2.62779 11.3172 2.72906 11.2754 2.80389 11.2009L6.26566 7.75963C5.83703 11.59 4.3944 15.2368 2.08644 18.3236C1.54912 18.1825 1.00438 18.0714 0.454808 17.9911L0.205016 17.966L0.125031 18.7618L0.358052 18.7845C0.757816 18.8418 1.155 18.9226 1.55009 19.014C1.4701 19.1143 1.39012 19.2162 1.30739 19.3151L1.9205 19.8279C4.99235 16.1756 6.82362 11.6415 7.14985 6.88028L7.60993 6.42311L7.95438 6.76562C7.53414 11.8574 5.7864 16.7502 2.88549 20.9559L3.5402 21.414C3.8545 20.9654 4.15428 20.4998 4.44487 20.0254C6.31469 20.9198 7.96567 22.2132 9.28155 23.8147L9.89982 23.3082C9.12174 22.3622 8.2303 21.5155 7.24532 20.7872H23.9987V19.9877H6.06102C5.66916 19.7511 5.26472 19.5368 4.85173 19.3373V19.3373ZM12.548 10.2051L8.32463 6.00609C9.40492 5.68357 10.575 5.97625 11.3762 6.76949L11.7579 7.15136C12.5576 7.9496 12.8601 9.11922 12.548 10.2051ZM14.195 5.45974H10.8853C10.1145 5.09287 9.24479 4.98902 8.4093 5.16431C8.99096 4.3464 9.9324 3.86068 10.9361 3.86084H11.4757C12.6056 3.85907 13.6472 4.47153 14.195 5.45974ZM8.51879 2.09278L8.90066 1.71108C9.69954 0.911228 10.8696 0.608543 11.9561 0.920743L9.5865 3.30433C8.81745 3.58734 8.15725 4.10563 7.69943 4.78535C7.51349 3.80746 7.82021 2.80055 8.52008 2.09278H8.51879ZM6.31678 1.71108L6.69849 2.09278C6.87652 2.27452 7.031 2.47803 7.15824 2.69832C6.97714 3.11937 6.87378 3.56944 6.85281 4.0271C6.49401 3.71361 6.0807 3.46882 5.63368 3.30433L3.26364 0.920743C4.34973 0.608704 5.51951 0.91139 6.31791 1.71108H6.31678ZM3.74129 3.86084H4.28103C5.28536 3.85987 6.22809 4.34543 6.8104 5.16382C5.97539 4.98918 5.10604 5.09303 4.3357 5.45974H1.0247C1.57234 4.47202 2.61312 3.85971 3.74258 3.86084H3.74129ZM2.67165 10.2051C2.35962 9.11922 2.6623 7.9496 3.46199 7.15136L3.84369 6.76949C4.41875 6.19589 5.1986 5.87482 6.01103 5.8774C6.31082 5.87756 6.60899 5.9203 6.89684 6.00447L2.67165 10.2051Z" fill="white"/>
</g>
<defs>
<clipPath id="clip0_657:4647">
<rect width="24" height="24" fill="white"/>
</clipPath>
</defs>
</svg>

<svg width="24" height="24" fill="none" xmlns="http://www.w3.org/2000/svg"><g clip-path="url(#a)" fill="#fff"><path d="M13.606 15.191a3.997 3.997 0 1 0 7.995 0 3.997 3.997 0 0 0-7.995 0Zm3.997-3.198a3.198 3.198 0 1 1 0 6.396 3.198 3.198 0 0 1 0-6.396ZM15.32 23.186h4.568v.8h-4.569v-.8ZM13.606 21.587H21.6v.8h-7.995v-.8ZM4.812 21.587h.8v.8h-.8v-.8ZM2.414 22.386h.799v.8h-.8v-.8Z"/><path d="M4.852 19.337A30.274 30.274 0 0 0 8.697 7.505l3.718 3.696a.4.4 0 0 0 .638-.105 3.903 3.903 0 0 0-.733-4.51l-.327-.327h2.812a.4.4 0 0 0 .38-.526 3.903 3.903 0 0 0-3.708-2.672h-.52l1.997-2.008a.4.4 0 0 0-.105-.64 3.904 3.904 0 0 0-4.512.733l-.382.382c-.125.125-.24.258-.347.4a3.84 3.84 0 0 0-.343-.4l-.382-.382a3.902 3.902 0 0 0-4.51-.732.4.4 0 0 0-.104.64L4.267 3.06h-.524A3.903 3.903 0 0 0 .035 5.733a.4.4 0 0 0 .38.526h2.809l-.327.327a3.903 3.903 0 0 0-.733 4.51.4.4 0 0 0 .64.105L6.266 7.76a21.665 21.665 0 0 1-4.18 10.564 14.914 14.914 0 0 0-1.631-.333l-.25-.025-.08.796.233.023c.4.057.797.138 1.192.229-.08.1-.16.202-.243.301l.614.513A22.505 22.505 0 0 0 7.15 6.88l.46-.457.344.343a29.226 29.226 0 0 1-5.069 14.19l.655.458c.314-.449.614-.914.905-1.389 1.87.895 3.52 2.188 4.837 3.79l.618-.507a14.93 14.93 0 0 0-2.655-2.52H24v-.8H6.06c-.392-.237-.796-.451-1.21-.65Zm7.696-9.132L8.325 6.006a3.083 3.083 0 0 1 3.051.763l.382.382c.8.799 1.102 1.968.79 3.054Zm1.647-4.745h-3.31a3.898 3.898 0 0 0-2.476-.296 3.1 3.1 0 0 1 2.527-1.303h.54a3.104 3.104 0 0 1 2.719 1.599ZM8.519 2.093 8.9 1.71a3.106 3.106 0 0 1 3.055-.79l-2.37 2.383A3.899 3.899 0 0 0 7.7 4.785a3.026 3.026 0 0 1 .821-2.692H8.52ZM6.317 1.71l.381.382c.179.182.333.385.46.605a3.803 3.803 0 0 0-.305 1.33 3.9 3.9 0 0 0-1.22-.724L3.264.921a3.104 3.104 0 0 1 3.055.79h-.001ZM3.74 3.861h.54a3.1 3.1 0 0 1 2.53 1.303 3.9 3.9 0 0 0-2.475.296H1.025a3.104 3.104 0 0 1 2.718-1.6H3.74Zm-1.07 6.344a3.104 3.104 0 0 1 .791-3.054l.382-.382a3.055 3.055 0 0 1 2.167-.892c.3 0 .598.043.886.127l-4.225 4.201Z"/></g><defs><clipPath id="a"><path fill="#fff" d="M0 0h24v24H0z"/></clipPath></defs></svg>
